X:1
T:Title
%%score { 1 | 2 }
L:1/8
M:6/4
K:F
V:1 treble nm="Grand Piano"
V:2 bass 
V:1
 z6 z4[Q:1/4=100] [Ac]2 | [Ac]3 [GB] A2 A3 G F2 | [DF]6 D4 F2 | C2 C2 F2 A2 A2 [CFc]2 | %4
 [CEG]6- [CEG]4 [CBc]2 | [CAc]3 [CGB] [CFA]2 [CFA]3 [B,CG] [A,CF]2 | [B,DF]6 [F,B,D]4 [DB]2 | %7
 A3 G F2 G2 D2 E2 | F6- F4 F2 | [EG]3 [EG] [EG]2 [GB]2 [FA]2 [EG]2 | [FA]6 [Ac]4 A2 | %11
 G2 G2 c2 e2 c2 d2 | [Ec]6- [Ec]4 [Bc]2 | [Ac]3 [GB] A2 A3 G F2 | [DF]6 [B,D]4 [DB]2 | %15
 A3 G F2 G2 D2 E2 |[M:5/4] F2- F2- F6 |] %17
V:2
 z6 z4 [F,C]2 | [F,C]3 [F,C] [F,CF]2 [F,CF]3 [F,B,C] [F,A,C]2 | [B,,B,]6 [B,,F,B,]4 [D,F,B,]2 | %3
 [F,A,]2 [F,A,]2 [F,A,C]2 [F,CF]2 [F,CF]2 A,,2 | C,6- C,4 C,2 | F,3 F, F,2 F,3 F, F,2 | %6
 B,,6 B,,4 [B,,F,]2 | [C,F,C]3 [C,G,C] [C,A,C]2 [C,B,C]2 [C,B,C]2 [C,B,C]2 | %8
 [F,A,C]6- [F,A,C]4 [F,A,]2 | [C,C]3 [C,C] [C,C]2 [C,C]2 [C,C]2 [C,C]2 | %10
 [F,C]6 [F,C]4[K:treble] [F,CF]2 | [G,CE]2 [G,CE]2 [G,CE]2 [G,CG]2 [G,CE]2 [G,=B,F]2 | %12
 [C,C]6- [C,C]4 [C,C]2 | [F,C]3 [F,C] [F,CF]2 [F,CF]3 [F,B,C] [F,A,C]2 | %14
 [B,,B,]6 [B,,F,]4 [B,,F,]2 | [C,F,C]3 [C,G,C] [C,A,C]2 [C,B,C]2 [C,B,C]2 [C,B,C]2 | %16
[M:5/4] [F,A,C]2- [F,A,C]2- [F,A,C]6 |] %17

